public/avatar/item1/35.svg

<svg xmlns:xlink="http://www.w3.org/1999/xlink" height="65.4" width="80.15" xmlns="http://www.w3.org/2000/svg"><use height="8.75" transform="translate(23.2 31.55)" width="16.15" xlink:href="#a"/><defs><g id="a" fill-rule="evenodd"><path d="m-6.4 17.75 1.9 1.55q-.95.7-1.8 1.9-1.75 2.35-1.4 4.85l-.35.45-.35-3.85.3-1.9q.5-2.05 1.7-3" fill="#363634" transform="translate(8.4 -17.75)"/><path d="m-5.1 19.4-1.1.95q-1.2 1.45-1.6 3.9-.6 3.9-.1-.1V22q.25-2.35 1.3-3.65l1.5 1.05" fill="#e7dfde" transform="translate(8.4 -17.75)"/><path d="m-8.15 23.9.25-2.25q.4-2.5 1.3-3.3l.6.25-1.05 2.1q-.95 2.15-1.1 3.2" fill="#8c8a84" transform="translate(8.4 -17.75)"/><path d="M5.75 17.75q1.95 1.5 2 4.9L7.4 26.5l-.35-.45q.35-2.5-1.4-4.85l-1.8-1.9 1.9-1.55" fill="#363634" transform="translate(8.4 -17.75)"/><path d="m4.5 19.4 1.45-1.05q1.75 2.05 1.35 5.8.5 4-.1.1-.35-2.45-1.55-3.9L4.5 19.4" fill="#e7dfde" transform="translate(8.4 -17.75)"/><path d="m5.4 18.6.55-.25q1.45 1.25 1.55 5.7Q7.45 23 6.45 20.7L5.4 18.6" fill="#8c8a84" transform="translate(8.4 -17.75)"/></g></defs></svg>

<?xml version="1.0" encoding="UTF-8" standalone="no"?>
<svg xmlns:xlink="http://www.w3.org/1999/xlink" height="65.4px" width="80.15px" xmlns="http://www.w3.org/2000/svg">
  <g transform="matrix(1.0, 0.0, 0.0, 1.0, 31.6, 13.8)">
    <use height="8.75" transform="matrix(1.0, 0.0, 0.0, 1.0, -8.4, 17.75)" width="16.15" xlink:href="#shape0"/>
  </g>
  <defs>
    <g id="shape0" transform="matrix(1.0, 0.0, 0.0, 1.0, 8.4, -17.75)">
      <path d="M-6.4 17.75 L-4.5 19.3 Q-5.45 20.0 -6.3 21.2 -8.05 23.55 -7.7 26.05 L-8.05 26.5 -8.4 22.65 -8.1 20.75 Q-7.6 18.7 -6.4 17.75" fill="#363634" fill-rule="evenodd" stroke="none"/>
      <path d="M-5.1 19.4 L-6.2 20.35 Q-7.4 21.8 -7.8 24.25 -8.4 28.15 -7.9 24.15 L-7.9 22.0 Q-7.65 19.65 -6.6 18.35 L-5.1 19.4" fill="#e7dfde" fill-rule="evenodd" stroke="none"/>
      <path d="M-8.15 23.9 L-7.9 21.65 Q-7.5 19.15 -6.6 18.35 L-6.0 18.6 -7.05 20.7 Q-8.0 22.85 -8.15 23.9" fill="#8c8a84" fill-rule="evenodd" stroke="none"/>
      <path d="M5.75 17.75 Q7.7 19.25 7.75 22.65 L7.4 26.5 7.05 26.05 Q7.4 23.55 5.65 21.2 L3.85 19.3 5.75 17.75" fill="#363634" fill-rule="evenodd" stroke="none"/>
      <path d="M4.5 19.4 L5.95 18.35 Q7.7 20.4 7.3 24.15 7.8 28.15 7.2 24.25 6.85 21.8 5.65 20.35 L4.5 19.4" fill="#e7dfde" fill-rule="evenodd" stroke="none"/>
      <path d="M5.4 18.6 L5.95 18.35 Q7.4 19.6 7.5 24.05 7.45 23.0 6.45 20.7 L5.4 18.6" fill="#8c8a84" fill-rule="evenodd" stroke="none"/>
    </g>
  </defs>
</svg>
